X: 1239
T: Barney Buy Me A Milking Cow
B: australian traditional tunes wiki
M:6/8
L:1/8
R: Jig
Q: 3/8=100
K:A
V:1 
E|:"A"A2E ABc|"D"f2e "A"cde|"D"f2e "A"c2A|"E7"B2A "D"F2G|
"A"A2E ABc|"D"f2e "A"cde|1"D"fga "A"ecA|"E7"B3c2B:|2"D"fga "E7"e2c|"A"A3 ABc||
|:"D"d2d def|"A"e2c "E7"efg|"D"age"E7" gfe|"D"fed"A"e2c|
"D"d2d def|"A"e2c e2c|"E7"BcdB2G|1"A"A3ABc:|2"A"A3A3||
% abcbook-tune_id 6342d53a32391d45b8fd41cd


% abcbook-boost 0
% abcbook-tablature 
% abcbook-transpose 
% abcbook-lastupdated 1665324355433
% abcbook-soundfonts 
% abcbook-repeats 1
% NFF Book 2014

